!!!OTL: My Sailor Lad
!!!ONM: 44a.
**kern
*clefG2
*k[b-]
*F:
*M3/4
*MM92
{4c
=1
8.a
16a
4.a
8f
=2
8g
8a
4d}
{4c
=3
8.a
16a
4.a
8g
=4
8a
8b-
4cc}
{4c
=5
8a
8f
4.c
8g
=6
8g
8a
4.d}
{8g
=7
8a
8f
4.d
16c
16c
=8
8d
8e
4f}
==
*-
!!!CNT: Folksongs of Maritime Canada
!!!MRD: 1928///-1932///
!!!OCL: Helen Creighton
!!!YOR: Songs and Ballads from Nova Scotia
!!!PPR: J.M. Dent & Sons, Limited
!!!PPP: Toronto, Canada
!!!PDT: 1932///
!!!reprint: Dover Publications, 1992: ISBN 0-486-21703-5
!!!ENC1: Craig Stuart Sapp (music and bibliographic data)                       
!!!ENC2: Marcus Pearce (phrase markings and key designations)                   
!!!ENC3: Darrell Conklin (phrase markings and key designations)   
!!!END: 2002/04/10/
!!!EEV: 2004/06/05
!!!MPN: Miss Muriel Henneberry
!!!PPG: 89
!!!EFL: 44/152
!!!ARE: Canada; Nova Scotia
!!!verses: 6
!!!VTS: 4204320503
